X:15
T:Paddy Taylor's
S:as recorded by Gerry Harrington and Eoghan O'Sullivan on The Smoky Chimney
N:Transcribed by Alan Ng
H:From Maire O'Keeffe's program notes: According to Breanda/n Breathnach, Paddy learned the first of these jigs from Mick Barry, a local blacksmith in Loughill. Cf Ceol Rince 2, \#1.
D:Kells KM-9512
R:jig
C:Trad
Z:id:ng-jigs-15 transcribed by Alan Ng (alan@alan-ng.nospam (net)) Sept 21, 1997. This is the 1st jig on the track. Note that they recorded it a major third down. Compare Bernie Stock's session transcription of this tune in file Book1abc.txt \#81
L:1/8
E:13
M:6/8
K:D
D2 E|:FGF EFE|DFA d2A|~d3 cAG|~F3 GED|~F3 EFD|DFA def|edc ABc|1dfe dAG:|2dfe d2e\
|:f2a g2e|fdB AB=c|~B3 EFG|A2D FED|f2a g2e|fdB AFA|Bcd ecA|1dfe d2e:|2dfe d3|]
